X: 567
T: Miss Mary MacDonald
O: Athole coll.
%D 1788
R: reel, strathspey
B: Niel Gow's 2nd Collection, 1788 (mixed major/minor)
B: The Athole Collection, 1884 (entirely minor)
M: C|
L: 1/8
K: Gm
   B | "Gm"GGBG "F"AFFA | "Gm"GGBG AGBG | "Eb"EGBG "F"AFFA | "D7"GcBA "Gm"G2-G  :|
|: B | "Gm"GGgB "F"AFFA | "Gm"GGgd gagd |  "F"fgfc    AFFA | "D7"GcBA "Gm"G2-G :|
